!!!CDT:
!!!PTL: Il secondo libro de madrigali a sei voci
!!!PPP: Venice
!!!PPR: Amadino
!!!PDT: 1599
!!!PUB-format:
!!!RISM: B 4204
!!!rime: 1177
!!!AGN: Madrigal
!!!SCT: Trm1177b
!!!SCA: Trm1177b
!!!original-voices: 6
!!!extant-voices: 2
!!!complete: N
!!!final: A
!!!COM: Bozi, Paolo
!!!OTL: Che soave rapina
**kern	**text	**kern
*part2	*part2	*part1
*staff2	*staff2	*staff1
*I"Basso	*	*I"Canto
*I'B	*	*I'C
*oclefF3	*	*oclefG2
*clefF4	*	*clefG2
*k[]	*	*k[]
*omet(C)	*	*omet(C)
*M4/2	*	*M4/2
=1	=1	=1
1r	.	1r
1A	Che	1cc#X
=2	=2	=2
2D	so-	2dd
2.D	-a-	2.dd
4D	-ve	4dd
2C#X	ra-	2ee
=3	=3	=3
1D	-pi-	4.dd
.	.	8ee
.	.	2ff
1AA	-na	1ee
=4	=4	=4
2A	Fu	0r
2G	quel-	.
4E	-la	.
2F	del	.
4D	mio	.
=5	=5	=5
2E	co-	1r
2E	-re	.
1r	.	2ee
.	.	2dd
=6	=6	=6
1r	.	4b
.	.	2cc
.	.	4a
2r	.	2b
2E	Al-	2b
=7	=7	=7
2.A	-l'ar-	2a
.	.	2.cc
4A	-mo-	.
2A	-nia	.
.	.	4cc
2c	di-	2cc
=8	=8	=8
1G	-vi-	4b
.	.	2cc
.	.	4b
1C	-na,	[1cc
=9	=9	=9
1r	.	1cc]
2E	Men-	2r
4E	-tre	2ee
4E	scio-	.
=10	=10	=10
4.A	-gliea	2.cc
8G	sì	.
4A	va-	.
4d	-ghi	4dd
8cL	spir-	2ee
8B	.	.
8c	.	.
8dJ	.	.
4.c	.	4r
.	.	4ee
8B	.	.
=11	=11	=11
4A	.	4cc
8GL	.	4dd
8FJ	.	.
4E	.	4ee
4D	-ti a-	4ff
1A	-mo-	1ee
=12	=12	=12
1D	-re,	1dd
1r	.	2r
.	.	2ee
=13	=13	=13
2E	Men-	4ee
.	.	4ee
4E	-tre	2.ee
4E	scio-	.
4.A	-gliea	.
.	.	4ee
8G	sì	.
4A	va-	4cc
4d	-ghi	4dd
=14	=14	=14
8cL	spir-	2ee
8B	.	.
8A	.	.
8GJ	.	.
4.F	.	2ff
8E	.	.
8DL	.	4r
8E	.	.
8F	.	4ff
8GJ	.	.
4A	.	4cc
4D	-ti a-	4dd
=15	=15	=15
1A	-mo-	4ee
.	.	4dd
.	.	2cc#X
1D	-re!	1dd
=16	=16	=16
0r	.	2r
.	.	2b
.	.	2ccnXi
.	.	2ee
=17	=17	=17
2r	.	2dd
2A	On-	4r
.	.	4cc
2D	-de	4dd
.	.	4a
2F	fra	8aL
.	.	8b
.	.	8cc
.	.	8ddJ
=18	=18	=18
2C	me	4ee
.	.	4ee
2r	.	4.ee
.	.	8dd
2r	.	4.cc
.	.	16bL
.	.	16aJ
4r	.	2b
4E	di-	.
=19	=19	=19
4.F	-cea	4a
.	.	4ff
8G	da	.
4A	me	4ee
4A	di-	4ee
2B	-vi-	2dd
2A	-so:	2cc
=20	=20	=20
2F	Se	0r
4E	que-	.
4C	-st'è'l	.
4D	pa-	.
4D	-ra-	.
8CL	-di-	.
8D	.	.
8E	.	.
8FJ	.	.
=21	=21	=21
8GL	.	1r
8EJ	.	.
2A	.	.
4G#X	.	.
2A	-so,	2r
2r	.	4r
.	.	4ff
=22	=22	=22
0r	.	4ee
.	.	4cc
.	.	4dd
.	.	4dd
.	.	8ccL
.	.	8dd
.	.	8ee
.	.	8ffJ
.	.	8ggL
.	.	8eeJ
.	.	[4aa
=23	=23	=23
2r	.	4aa]
.	.	4gg#X
2F	Se	2aa
2A	que-	1r
2B	-st'è'l	.
=24	=24	=24
4A	pa-	4r
4A	-ra-	4ee
1E	-di-	4ee
.	.	4cc
.	.	2.ee
2E	-so,	.
.	.	4ee
=25	=25	=25
4r	.	1ee
4A	Più	.
2G#X	dol-	.
2A	-ce,	1ee
2r	.	.
=26	=26	=26
4r	.	4r
4D	Più	4ff
2C#X	dol-	2ee
4D	-ce,	2dd
4D	Più	.
2A	dol-	2r
=27	=27	=27
4D	-ce,	4r
4A	Più	4ee
2G#X	dol-	2ee
2A	-ce	4ee
.	.	4cc
2r	.	2b
=28	=28	=28
4r	.	2a
2F	che	.
.	.	2r
4E	fra	.
4.D	l'ac-	1r
8E	.	.
8FL	.	.
8G	.	.
8A	.	.
8FJ	.	.
=29	=29	=29
4G	.	1r
8FL	.	.
8EJ	.	.
8DL	.	.
8E	.	.
8F	.	.
8GJ	.	.
2A	.	2r
2D	-que	4r
.	.	[4ff
=30	=30	=30
0r	.	4ff]
.	.	4gg
.	.	4.aa
.	.	8gg
.	.	4ff
.	.	4ff
.	.	4.ee
.	.	16ddL
.	.	16eeJ
=31	=31	=31
0r	.	4ff
.	.	4dd
.	.	8ccL
.	.	8dd
.	.	8ee
.	.	8ccJ
.	.	1dd
=32	=32	=32
2A	e	2cc
2G	fra	2r
2F	l'a-	2r
4E	-re-	2ee
8DL	.	.
8CJ	.	.
=33	=33	=33
8DL	.	2dd
8E	.	.
8F	.	.
8GJ	.	.
2A	.	2cc
2E	-ne,	2b
2r	.	2a
=34	=34	=34
4r	.	4a
2A	che	2cc
4G	fra	4b
4.F	l'ac-	4.a
8G	.	8b
8AL	.	8ccL
8B	.	8dd
8c	.	8ee
8AJ	.	8ccJ
=35	=35	=35
4B-X	.	4dd
8AL	.	8ccL
8GJ	.	8bJ
8AL	.	8aL
8DJ	.	8b
2A	.	8cc
.	.	8ddJ
.	.	2ee
4G#X	.	.
2A	-que	2a
=36	=36	=36
4r	.	4r
4c	e	2ee
2GnXi	fra	.
.	.	2dd
2A	l'a-	.
.	.	4cc
2E	-re-	2b
=37	=37	=37
0A	-ne	0cc
=38	=38	=38
2D	In	1r
1d	ciel	.
.	.	4r
.	.	4a
4A	son	2ee
[4c	le	.
=39	=39	=39
4c]	.	4cc
4B-X	si-	2dd
2A	-re-	.
.	.	4cc
2G	-ne,	4.b
.	.	8cc
4r	.	8ddL
.	.	8eeJ
4D	In	[4dd
=40	=40	=40
2A	ciel	4dd]
.	.	4cc#X
4F	son	2dd
2G	le	.
.	.	1r
4F	si-	.
2E	-re-	.
=41	=41	=41
2D	-ne,	4r
.	.	2a
2r	.	.
.	.	2ee
1r	.	.
.	.	4b
.	.	4.ccnXi
.	.	16bL
.	.	16aJ
=42	=42	=42
1E	In	4b
.	.	4a
.	.	2b
2A	ciel	2cc
2F	son	4r
.	.	4a
=43	=43	=43
2G	le	2b
2F	si-	4r
.	.	4a
1E	-re-	4b
.	.	4cc
.	.	2ee
=44	=44	=44
0AAl	-ne.	0eel
==	==	==
*-	*-	*-
!!!system-decoration: [*]
!!!RDF**kern: i = editorial accidental
!!!RDF**kern: l = terminal long
!!!ENC: Emiliano Ricciardi
!!!END: 2018
!!!EED: Ricciardi, Emiliano
!!!EEV: 2018/09/18
!!!YEC: Copyright 2018 Emiliano Ricciardi, All Rights Reserved
!!!ONB: Translated from MusicXML on 2018/09/18 and edited by Craig Stuart Sapp
!!@@BEGIN:	VERSEDATA
!!@SOLERTI:	1177
!!@CATALOGNUM:	Trm1177
!!@LAST_MODIFIED: 2020/07/12
!!@TITLE:		Che soave rapina
!!@GENRE:		madrigale
!!@MANUSRC:	E<sub>1</sub>, F<sub>2</sub>, V<sub>13/E1</sub>
!!@PRINTSRC:	27, 48, 54, 70, 141, 145, 166, 169
!!@@BEGIN:	VERSES
!!@ABOUTIT:	[A la medesima? (i.e., Livia d'Arco, see Rime 1171-1176)]
!!@ABOUTEN:	[To the same lady? (i.e., Livia d'Arco, see Rime 1171-1176)]
!!@EDITOR:	Solerti, Angelo
!!@EDITION_TITLE: Le Rime di Torquato Tasso
!!@EDITION_LOC:	Bologna
!!@EDITION_PUB:	Romagnoli-Dall’Acqua
!!@EDITION_DATE:  1898-1902
!!@EDITION_VOL:	4
!!@EDITION_PAGE:  213
!!@TRANSLATOR:	Emiliano Ricciardi and Amyrose McCue Gill
!!@VERSE:
!!	Che soave rapina
!!	Fu quella del mio core
!!	A l'armonìa divina,
!!	Mentre sciogliea sì vaghi spirti Amore!
!!	Onde fra me dicea da me diviso:
!!	Se questo è il paradiso,
!!	Più dolci che ne l'acque e fra l'arene
!!	In ciel son le sirene!
!!@TVERSE:
!!	What a pleasing theft
!!	Was that of my heart
!!	To divine harmony,
!!	While Love dissolved such lovely spirits!
!!	Hence I said to myself, from myself parted:
!!	If this is paradise,
!!	Sweeter than in the waters and between the shores
!!	In heaven are the sirens!
!!@@END:		VERSES
!!@OTHER_CRIT_ED:   None
!!@ATTRIBUTION_ABOUT:	Secure
!!	<br>
!!	Among other sources, this sonnet appears in the authoritative manuscript It. 385, Biblioteca Estense Universitaria, Modena, Italy (see Literary Sources).
!!@DATING:	Mid-1580s?
!!@DEDICATEE:	d'Arco, Livia ?
!!@COMMENTARY:
!!@@END:		VERSEDATA
!!@@BEGIN:	SETTING
!!@CATALOGNUM:	Trm1177b
!!@RIMETITLE:	Che soave rapina
!!@SOLERTI:	1177
!!@COMPOSER:	Bozi, Paolo
!!@PRINCEPSTITLE:	Il secondo libro de madrigali a sei voci
!!@PRINCEPSLOC:	Venetia
!!@NORMLOC:	Venice
!!@NORMPUB:	Amadino
!!@NORMPUBSHORT:	Amadino
!!@PRINCEPSPUB:	Amadino
!!@PRINCEPSYEAR:	1599
!!@PRINCEPSRISM:	B 4204
!!@REPRINTS:	
!!@OVOICES:	6
!!@EXTANTVOICES:	2
!!@PARTBOOKS:	
!!@EXTPARTBOOKS:	
!!@OCLEFS:	G2,F3
!!@OMENSURATION:	C
!!@OKEYSIG:	-
!!@FINAL:	A
!!@TIMPEDITOR:	Ricciardi, Emiliano
!!@NOTE:		
!!@@END:		SETTING
